images/news.svg

<svg width="478" height="478" fill="none" xmlns="http://www.w3.org/2000/svg"><g clip-path="url(#clip0)" fill="#FFEA00"><path d="M460.8 119.467h-85.333v-102.4C375.467 7.641 367.826 0 358.4 0H17.067C7.641 0 0 7.641 0 17.067V409.6c0 37.703 30.564 68.267 68.267 68.267H409.6c37.703 0 68.267-30.564 68.267-68.267V136.533c0-9.425-7.641-17.066-17.067-17.066zM68.267 443.733c-18.851 0-34.133-15.282-34.133-34.133V34.133h307.2V409.6a67.492 67.492 0 001.246 12.254c.171.973.358 1.929.58 2.884a68.467 68.467 0 003.516 11.315c0 .171.171.324.239.478a67.333 67.333 0 003.584 7.202H68.267zM443.733 409.6c0 18.851-15.282 34.133-34.133 34.133-18.851 0-34.133-15.282-34.133-34.133v-256h68.267v256h-.001z"/><path d="M238.933 85.333h-102.4c-9.426 0-17.067 7.641-17.067 17.067s7.641 17.067 17.067 17.067h102.4c9.426 0 17.067-7.641 17.067-17.067s-7.641-17.067-17.067-17.067zm51.2 85.334h-204.8c-9.426 0-17.067 7.641-17.067 17.067s7.641 17.067 17.067 17.067h204.8c9.426 0 17.067-7.641 17.067-17.067s-7.641-17.067-17.067-17.067zm0 68.266h-204.8c-9.426 0-17.067 7.641-17.067 17.067s7.641 17.067 17.067 17.067h204.8c9.426 0 17.067-7.641 17.067-17.067s-7.641-17.067-17.067-17.067zm0 68.267h-204.8c-9.426 0-17.067 7.641-17.067 17.067s7.641 17.067 17.067 17.067h204.8c9.426 0 17.067-7.641 17.067-17.067s-7.641-17.067-17.067-17.067zm0 68.267h-204.8c-9.426 0-17.067 7.641-17.067 17.067S75.908 409.6 85.333 409.6h204.8c9.426 0 17.067-7.641 17.067-17.067s-7.641-17.066-17.067-17.066z"/></g><defs><clipPath id="clip0"><path fill="#fff" d="M0 0h477.867v477.867H0z"/></clipPath></defs></svg>

<svg width="478" height="478" viewBox="0 0 478 478" fill="none" xmlns="http://www.w3.org/2000/svg">
<g clip-path="url(#clip0)">
<path d="M460.8 119.467H375.467V17.067C375.467 7.641 367.826 0 358.4 0H17.067C7.641 0 0 7.641 0 17.067V409.6C0 447.303 30.564 477.867 68.267 477.867H409.6C447.303 477.867 477.867 447.303 477.867 409.6V136.533C477.867 127.108 470.226 119.467 460.8 119.467ZM68.267 443.733C49.416 443.733 34.134 428.451 34.134 409.6V34.133H341.334V409.6C341.375 413.714 341.792 417.816 342.58 421.854C342.751 422.827 342.938 423.783 343.16 424.738C344.003 428.604 345.179 432.39 346.676 436.053C346.676 436.224 346.847 436.377 346.915 436.531C347.965 439.001 349.162 441.406 350.499 443.733H68.267V443.733ZM443.733 409.6C443.733 428.451 428.451 443.733 409.6 443.733C390.749 443.733 375.467 428.451 375.467 409.6V153.6H443.734V409.6H443.733Z" fill="#FFEA00"/>
<path d="M238.933 85.333H136.533C127.107 85.333 119.466 92.974 119.466 102.4C119.466 111.826 127.107 119.467 136.533 119.467H238.933C248.359 119.467 256 111.826 256 102.4C256 92.974 248.359 85.333 238.933 85.333Z" fill="#FFEA00"/>
<path d="M290.133 170.667H85.333C75.907 170.667 68.266 178.308 68.266 187.734C68.266 197.16 75.907 204.801 85.333 204.801H290.133C299.559 204.801 307.2 197.16 307.2 187.734C307.2 178.308 299.559 170.667 290.133 170.667Z" fill="#FFEA00"/>
<path d="M290.133 238.933H85.333C75.907 238.933 68.266 246.574 68.266 256C68.266 265.426 75.907 273.067 85.333 273.067H290.133C299.559 273.067 307.2 265.426 307.2 256C307.2 246.574 299.559 238.933 290.133 238.933Z" fill="#FFEA00"/>
<path d="M290.133 307.2H85.333C75.907 307.2 68.266 314.841 68.266 324.267C68.266 333.693 75.907 341.334 85.333 341.334H290.133C299.559 341.334 307.2 333.693 307.2 324.267C307.2 314.841 299.559 307.2 290.133 307.2Z" fill="#FFEA00"/>
<path d="M290.133 375.467H85.333C75.907 375.467 68.266 383.108 68.266 392.534C68.266 401.96 75.908 409.6 85.333 409.6H290.133C299.559 409.6 307.2 401.959 307.2 392.533C307.2 383.107 299.559 375.467 290.133 375.467Z" fill="#FFEA00"/>
</g>
<defs>
<clipPath id="clip0">
<rect width="477.867" height="477.867" fill="white"/>
</clipPath>
</defs>
</svg>
